tag/Light/ZCOOL.svg

<svg width="115" height="32" viewBox="0 0 115 32" fill="none" xmlns="http://www.w3.org/2000/svg">
<path d="M0 16C0 10.3995 0 7.59921 1.08993 5.46009C2.04867 3.57847 3.57847 2.04867 5.46009 1.08993C7.59921 0 10.3995 0 16 0H98.6273C104.228 0 107.028 0 109.167 1.08993C111.049 2.04867 112.579 3.57847 113.537 5.46009C114.627 7.59921 114.627 10.3995 114.627 16V16C114.627 21.6005 114.627 24.4008 113.537 26.5399C112.579 28.4215 111.049 29.9513 109.167 30.9101C107.028 32 104.228 32 98.6273 32H16C10.3995 32 7.59921 32 5.46009 30.9101C3.57847 29.9513 2.04867 28.4215 1.08993 26.5399C0 24.4008 0 21.6005 0 16V16Z" fill="#272727"/>
<path d="M10 16C10 11.5817 13.5817 8 18 8V8C22.4183 8 26 11.5817 26 16V16C26 20.4183 22.4183 24 18 24V24C13.5817 24 10 20.4183 10 16V16Z" fill="#FDF250"/>
<path fill-rule="evenodd" clip-rule="evenodd" d="M22.1563 12.2679C22.2452 13.507 21.8845 14.5802 21.1646 15.6404L21.253 15.621C21.6204 15.5395 21.9402 15.4685 22.26 15.3979L22.3602 15.4719C22.2988 15.576 22.2423 15.6847 22.1858 15.7934C22.0583 16.0384 21.9309 16.2835 21.7479 16.4758C21.5402 16.6941 21.2893 16.8708 21.0379 17.0479C20.9028 17.1431 20.7676 17.2383 20.6388 17.3402C20.5337 17.4233 20.4145 17.5331 20.3794 17.6535C19.9093 19.267 18.468 20.27 16.7498 20.1638C15.2073 20.069 13.8931 18.7955 13.6724 17.1825C13.4577 15.6137 14.313 14.2407 15.9172 13.6375C16.2593 13.5087 16.6208 13.4287 16.9811 13.3491C17.0827 13.3266 17.1841 13.3042 17.285 13.2807C18.099 13.0913 18.7715 12.7161 19.14 11.9212C19.1485 11.903 19.1671 11.8895 19.1941 11.8701C19.2096 11.8588 19.228 11.8456 19.2486 11.8284C19.5767 12.477 19.5184 13.108 19.2253 13.8768C19.4122 13.8034 19.5925 13.7383 19.7665 13.6755C20.1435 13.5394 20.4907 13.4141 20.8101 13.2385C21.1269 13.0644 21.4156 12.8391 21.7221 12.5999C21.8617 12.4909 22.005 12.3791 22.1563 12.2679ZM14.9535 17.5228C15.011 17.4982 15.0731 17.4716 15.1412 17.4488L14.0552 16.8923C14.0686 16.9256 14.0815 16.9589 14.0942 16.9919C14.2079 17.2857 14.3133 17.5583 14.6552 17.6011C14.7444 17.6124 14.8401 17.5714 14.9535 17.5228ZM18.4363 16.6771L16.2115 17.4402C16.5774 17.7599 16.9769 17.9051 17.4486 17.7375C17.9626 17.5547 18.2479 17.1611 18.4363 16.6771Z" fill="black"/>
<path d="M52.3586 18.2498C52.0132 18.9982 52.301 19.2284 52.9918 19.7465C53.2221 19.9768 53.3372 20.1495 53.2796 20.3221C53.1645 20.8402 52.5313 21.3008 51.8981 21.5886C51.2649 21.8764 50.6316 21.9915 50.1136 21.9915C48.5017 21.9915 47.0051 21.3007 45.9689 20.2646C45.7649 20.1116 45.6513 19.9586 45.5079 19.7655C45.4894 19.7407 45.4705 19.7152 45.4508 19.6889C45.3357 19.5738 45.163 19.5738 45.1054 19.8041V20.6675C45.163 21.4734 44.7025 21.8188 44.0117 21.934H36.9888C36.3556 21.8188 36.0102 21.4734 36.0102 20.8978V19.6314C36.0102 18.9982 36.298 18.5376 36.5858 18.1923L40.7881 13.7022H36.701C36.298 13.7022 36.0102 13.4144 36.0102 12.8963C35.9526 11.9177 36.1253 10.3634 36.8737 10.0181C36.9888 10.0181 36.9888 10.1908 36.9888 10.2483C36.8737 10.4786 36.9888 10.6513 37.2766 10.6513H42.4574C43.6087 10.6513 44.2995 10.6513 44.7025 10.5361C44.8752 10.4786 44.9903 10.5361 44.9327 10.7088C44.8459 11.0128 44.8573 11.3495 44.8682 11.6695C44.8717 11.7738 44.8752 11.8763 44.8752 11.9753C44.8752 13.2992 44.8752 13.8173 43.839 14.8535L40.27 18.7679H44.242C44.2879 18.7628 44.3306 18.7586 44.3703 18.7547C44.7782 18.7147 44.8599 18.7066 44.7025 18.0771C44.5298 17.5015 44.4722 16.8683 44.4722 16.1775C44.4722 14.5657 45.1054 13.069 46.1416 12.0328C46.8324 11.342 47.6958 10.8815 48.6744 10.5937C49.4803 10.3634 50.1711 10.3634 51.0346 10.4786C51.1922 10.5101 51.3455 10.5502 51.4956 10.5896C51.8939 10.6939 52.2702 10.7924 52.6464 10.7088C52.8767 10.6513 53.0494 10.5361 53.2221 10.0756C53.2796 9.96049 53.5674 9.96049 53.5099 10.1908C53.3948 11.2845 53.2796 11.8601 52.9918 12.4358C52.4737 13.5295 51.5527 13.8173 50.4589 13.7022C47.6383 13.3568 46.7748 17.6166 49.4228 18.4801C50.4014 18.8255 51.3224 18.6528 52.1283 18.0196C52.301 17.9044 52.4737 18.0196 52.3586 18.2498Z" fill="white"/>
<path fill-rule="evenodd" clip-rule="evenodd" d="M79.8744 17.7893L79.846 17.8235C79.5599 18.1679 79.1556 18.6546 78.3202 18.7103L74.8663 18.5376V13.99C74.8663 12.3782 75.1541 11.9177 75.4995 11.6299C75.5595 11.5871 75.6219 11.5455 75.6857 11.5032C76.0502 11.2608 76.4548 10.9919 76.6508 10.3059V10.0756C76.5932 10.0181 76.5357 10.0181 76.4781 10.1332C76.1903 10.5361 75.96 10.7088 75.3844 10.5937C73.6574 10.1908 71.7578 9.90294 71.7578 13.1266V13.472C71.7578 13.7022 71.5851 13.8173 71.4124 13.472C71.4124 13.4144 71.3548 13.3568 71.3548 13.3568C70.9519 12.4934 70.4338 11.8026 69.5703 11.2269C68.6493 10.6513 67.6131 10.3059 66.4043 10.3059C65.1954 10.3059 64.0441 10.6513 63.1231 11.3421C62.5474 11.8026 62.1445 12.4358 61.9142 12.9539C61.8567 13.069 61.7415 13.2417 61.684 13.069C61.5641 12.7894 61.7492 12.3435 61.9314 11.9045C62.0118 11.7107 62.0916 11.5183 62.1445 11.3421C62.202 11.1694 62.202 11.0542 62.1445 10.8815C62.0869 10.5361 61.9142 10.7088 61.9142 10.824C61.7415 11.5723 60.8781 11.1118 60.4751 10.8815C59.7843 10.4786 59.036 10.2483 58.1725 10.2483C56.5607 10.2483 55.1216 10.8815 54.0279 11.9753C52.9917 13.0114 52.3009 14.5081 52.3009 16.1199C52.3009 17.7317 52.8766 19.2284 53.9127 20.3222C54.9489 21.3583 56.5031 21.934 58.115 21.934C59.3238 21.934 61.9142 21.1856 61.6264 19.6314C61.6264 19.5639 61.6067 19.457 61.5903 19.3684C61.5787 19.3057 61.5688 19.2523 61.5688 19.2284C61.6264 19.1133 61.684 19.1709 61.7415 19.2284C61.7991 19.3148 61.8566 19.4155 61.9142 19.5162C61.9717 19.6169 62.0294 19.7177 62.0869 19.8041C62.8353 20.9554 64.5622 21.934 66.4043 21.934C67.3829 21.934 68.3615 21.7037 69.1674 21.2432C70.146 20.7251 70.8368 19.8616 71.2973 18.883C71.2973 18.8543 71.3117 18.8399 71.3261 18.8255C71.3405 18.8111 71.3548 18.7967 71.3548 18.7679C71.47 18.4801 71.7002 18.4225 71.7002 18.8255V21.1281C71.7002 21.8188 72.3334 22.0491 73.3696 21.9915H77.9172C79.0685 21.9915 79.5866 21.5886 79.7017 20.7251C79.7685 20.3247 79.7578 19.9824 79.7483 19.6756C79.7414 19.4531 79.7351 19.2493 79.7593 19.0557C79.8029 18.5327 79.9455 18.2077 80.0122 18.0557C80.0335 18.007 80.0471 17.976 80.0471 17.962C80.2774 17.7317 80.1047 17.6166 79.8744 17.7893ZM59.8419 17.8469C59.3814 18.3074 58.8057 18.5376 58.115 18.5376C57.4242 18.5376 56.8485 18.2498 56.388 17.8469C55.9275 17.3864 55.6972 16.8107 55.6972 16.1199C55.6972 15.4292 55.9851 14.8535 56.388 14.393C56.8485 13.9325 57.4242 13.7022 58.115 13.7022C58.8057 13.7022 59.3814 13.99 59.8419 14.393C60.3024 14.8535 60.5327 15.4292 60.5327 16.1199C60.5902 16.8107 60.3024 17.4439 59.8419 17.8469ZM68.1888 17.8469C67.7283 18.3074 67.1526 18.5376 66.4618 18.5376C65.7711 18.5376 65.1954 18.2498 64.7349 17.8469C64.2744 17.3864 64.0441 16.8107 64.0441 16.1199C64.0441 15.4292 64.3319 14.8535 64.7349 14.393C65.1954 13.9325 65.7711 13.7022 66.4618 13.7022C67.1526 13.7022 67.7283 13.99 68.1888 14.393C68.6493 14.8535 68.8796 15.4292 68.8796 16.1199C68.8796 16.8107 68.6493 17.4439 68.1888 17.8469Z" fill="white"/>
<path d="M86.6672 12.2056H84.1343L85.1129 11.9177C85.0554 11.8026 84.9978 11.63 84.9403 11.4573C84.8827 11.2847 84.7676 11.1119 84.6524 10.9392C84.5373 10.7665 84.4222 10.5938 84.307 10.4786L83.0982 10.7665C83.1679 10.8362 83.2165 10.927 83.2696 11.0261C83.3041 11.0907 83.3406 11.1588 83.386 11.227C83.4663 11.3474 83.5185 11.4678 83.5624 11.5686C83.5813 11.6124 83.5989 11.6527 83.6163 11.6875C83.645 11.7738 83.6738 11.8458 83.7026 11.9177C83.7314 11.9897 83.7602 12.0617 83.789 12.148H81.6015V13.5296H86.6672V12.2056Z" fill="white"/>
<path d="M82.5224 19.4011L83.7313 19.1132C83.6161 17.5014 83.4435 15.8896 83.1556 14.3354L82.0043 14.5656C82.2346 16.1774 82.4649 17.7893 82.5224 19.4011Z" fill="white"/>
<path fill-rule="evenodd" clip-rule="evenodd" d="M91.9055 12.148C92.3084 12.0904 92.4811 11.9177 92.5963 11.8026C92.6538 11.745 92.5387 11.9753 92.4236 12.2055C92.396 12.2883 92.408 12.3842 92.4218 12.4934C92.4367 12.6121 92.4536 12.7464 92.4236 12.8963C92.366 13.2993 92.1933 13.472 91.7328 13.472H89.8332V15.314H91.3298C91.8479 15.314 92.3084 15.4867 92.3084 16.0048V20.8978C92.366 21.4159 92.0782 21.8189 91.2723 21.8189H87.473C86.8973 21.8189 86.552 21.6462 86.552 21.0705V16.0048C86.552 15.4867 86.8973 15.3716 87.473 15.3716H88.4516V10.421H89.8907V12.148H91.9055ZM90.9844 16.9259C90.9844 16.7532 90.8693 16.7532 90.8118 16.7532H88.1638C88.0486 16.7532 87.9911 16.8107 87.9911 16.9259V20.3797C87.9911 20.4949 88.0486 20.4949 88.1062 20.4949H90.8693C90.9269 20.4949 90.9844 20.4373 90.9844 20.3797V16.9259Z" fill="white"/>
<path fill-rule="evenodd" clip-rule="evenodd" d="M102.613 13.5295H103.821C104.224 13.5295 104.397 13.3568 104.455 13.0115C104.494 12.8134 104.479 12.6698 104.466 12.5433C104.46 12.486 104.455 12.4321 104.455 12.3782C104.455 12.148 104.57 11.9753 104.57 11.9753C104.558 11.9871 104.546 11.9995 104.534 12.0122L104.533 12.0133L104.532 12.0139L104.532 12.0143C104.426 12.1257 104.296 12.2631 103.937 12.2631H102.613V10.421H101.346V12.2631H100.54C100.569 12.0616 100.612 11.8602 100.655 11.6587C100.699 11.4572 100.742 11.2557 100.77 11.0543L99.5616 10.824C99.5328 10.9967 99.5041 11.155 99.4753 11.3133C99.4465 11.4716 99.4177 11.6299 99.3889 11.8026C99.3314 12.148 99.2738 12.4358 99.1587 12.7236C99.1011 13.0114 98.986 13.2992 98.8709 13.587C98.8133 13.731 98.7557 13.8606 98.6981 13.9757V13.7022C98.6406 13.2417 98.4679 13.1265 97.6044 13.1265V12.0904H98.8708V10.8815H93.6324V12.0904H94.7837V13.1265C93.9778 13.1265 93.69 13.1841 93.69 13.7597V21.128C93.69 21.5885 93.8627 21.7612 94.7262 21.7612H97.7195C98.2952 21.7612 98.6981 21.6461 98.6981 21.128V14.3585C98.9314 14.4766 99.1297 14.6139 99.3352 14.7563C99.4091 14.8075 99.4839 14.8593 99.5616 14.9111C99.6767 14.7384 99.7919 14.5081 99.8494 14.2779C99.9459 14.085 100.002 13.8517 100.051 13.6457C100.061 13.6058 100.07 13.5669 100.08 13.5295H101.231V15.0262H98.7557V16.2926H104.627V15.0262H102.613V13.5295ZM97.4893 14.3354H97.1439V16.6955H97.6044V14.4505C97.6044 14.393 97.6044 14.3642 97.59 14.3498C97.5756 14.3354 97.5468 14.3354 97.4893 14.3354ZM96.5107 12.0904H95.8199V13.1265H96.5107V12.0904ZM94.7837 14.3354C94.7262 14.3354 94.6686 14.393 94.6686 14.4505V17.2136C94.7837 17.0409 94.8988 16.8682 94.9564 16.6955C94.9684 16.6475 94.9804 16.6019 94.9919 16.5583C95.0355 16.3932 95.0715 16.2565 95.0715 16.1199V14.3354H94.7837ZM95.1291 18.0195L94.6686 17.4439H94.611V18.3649H97.6044V17.559H97.2014C96.5107 17.559 96.338 17.3863 96.338 16.6955V14.3354H95.935V15.7169C95.935 15.9472 95.935 16.1775 95.8774 16.4653C95.8199 17.0985 95.5321 17.559 95.1291 18.0195ZM94.7262 20.4373H97.4893C97.6044 20.4373 97.662 20.3797 97.6044 20.3221V19.4011H94.611V20.3221C94.611 20.3797 94.611 20.4373 94.7262 20.4373Z" fill="white"/>
<path fill-rule="evenodd" clip-rule="evenodd" d="M103.591 16.9834H100.31C99.6769 16.9834 99.3315 17.1561 99.3315 17.6741V21.0129C99.3315 21.4159 99.389 21.7037 100.368 21.7037H103.361C104.052 21.7612 104.397 21.5886 104.455 21.0129V17.7317C104.455 17.0985 103.994 16.9834 103.591 16.9834ZM103.073 20.4948H100.713C100.655 20.4948 100.598 20.4948 100.598 20.3797V18.4225C100.598 18.3074 100.598 18.2498 100.713 18.2498H103.073C103.188 18.2498 103.246 18.2498 103.246 18.3649V20.3797C103.188 20.4373 103.131 20.4948 103.073 20.4948Z" fill="white"/>
<path d="M85.8297 16.0903C85.6462 17.2662 85.464 18.4335 85.228 19.5739L86.2642 19.2285L86.4369 20.6101C86.1778 20.6964 85.9044 20.7684 85.631 20.8403C85.3575 20.9123 85.0841 20.9842 84.8251 21.0706C84.307 21.2433 83.7889 21.416 83.2708 21.5311C82.9459 21.653 82.5922 21.7462 82.2706 21.8309C82.1365 21.8663 82.0079 21.9002 81.8893 21.9341L81.5439 20.4374C81.5922 20.4293 81.6417 20.4213 81.6922 20.413C82.0021 20.3626 82.3486 20.3061 82.6952 20.2071L84.0767 19.8617C84.4221 18.0197 84.6524 16.0625 84.7675 14.1628L86.0915 14.4507C86.0003 14.9978 85.9149 15.545 85.8297 16.0903Z" fill="white"/>
</svg>

<svg xmlns="http://www.w3.org/2000/svg" width="115" height="32" fill="none" viewBox="0 0 115 32" preserveAspectRatio="xMinYMin meet">
    <g class="ZCOOL">
        <path class="box" fill="#272727" d="M0 16c0-5.6 0-8.4 1.09-10.54a10 10 0 0 1 4.37-4.37C7.6 0 10.4 0 16 0h82.627c5.601 0 8.401 0 10.54 1.09a9.994 9.994 0 0 1 4.37 4.37c1.09 2.14 1.09 4.94 1.09 10.54 0 5.6 0 8.4-1.09 10.54a9.994 9.994 0 0 1-4.37 4.37C107.028 32 104.228 32 98.627 32H16c-5.6 0-8.4 0-10.54-1.09a10 10 0 0 1-4.37-4.37C0 24.4 0 21.6 0 16Z"/>
        <g class="icon">
            <rect width="16" height="16" x="10" y="8" fill="#FDF250" rx="8"/>
            <path fill="#000" fill-rule="evenodd" d="M22.156 12.268c.09 1.24-.271 2.312-.991 3.372l.088-.019 1.007-.223.1.074a6.861 6.861 0 0 0-.174.321c-.128.245-.255.49-.438.683-.208.218-.459.395-.71.572a8.86 8.86 0 0 0-.4.292c-.104.083-.224.193-.259.314-.47 1.613-1.911 2.616-3.63 2.51-1.542-.095-2.856-1.368-3.077-2.982-.214-1.568.641-2.941 2.245-3.544.342-.13.704-.21 1.064-.289l.304-.068c.814-.19 1.486-.565 1.855-1.36.008-.018.027-.031.054-.05.016-.012.034-.025.055-.043.328.65.27 1.28-.024 2.049.187-.074.367-.139.541-.201.378-.136.725-.262 1.044-.438.317-.173.606-.399.912-.638.14-.109.283-.22.434-.332Zm-7.202 5.255c.057-.025.12-.051.187-.074l-1.086-.557.04.1c.113.294.218.566.56.61.09.01.185-.03.299-.08Zm3.482-.846-2.224.763c.365.32.765.465 1.237.298.514-.183.799-.577.987-1.06Z" class="Exclude" clip-rule="evenodd"/>
        </g>
        <g class="name">
            <path fill="#fff" d="M52.359 18.25c-.346.748-.058.978.633 1.497.23.23.345.402.288.575-.116.518-.749.979-1.382 1.267a4.394 4.394 0 0 1-1.784.402 5.924 5.924 0 0 1-4.145-1.726c-.204-.153-.318-.306-.461-.5l-.057-.076c-.115-.115-.288-.115-.346.115v.864c.058.805-.402 1.15-1.093 1.266h-7.023c-.633-.115-.979-.46-.979-1.036V19.63c0-.633.288-1.093.576-1.439l4.202-4.49h-4.087c-.403 0-.69-.288-.69-.806-.058-.978.114-2.533.863-2.878.115 0 .115.173.115.23-.115.23 0 .403.288.403h5.18c1.152 0 1.843 0 2.245-.115.173-.057.288 0 .23.173-.086.304-.075.64-.064.96.004.105.007.207.007.306 0 1.324 0 1.842-1.036 2.879l-3.569 3.914h3.972l.128-.013c.408-.04.49-.048.333-.678-.173-.576-.23-1.209-.23-1.9 0-1.611.632-3.108 1.669-4.144.69-.691 1.554-1.151 2.532-1.44.806-.23 1.497-.23 2.36-.114.158.031.312.071.462.11.398.105.774.203 1.15.12.23-.058.403-.173.576-.633.058-.116.345-.116.288.115-.115 1.093-.23 1.67-.518 2.245-.518 1.094-1.44 1.381-2.533 1.266-2.82-.345-3.684 3.915-1.036 4.778.978.346 1.9.173 2.705-.46.173-.116.346 0 .23.23Z"/>
            <path fill="#fff" fill-rule="evenodd" d="m79.874 17.79-.028.034c-.286.344-.69.83-1.526.886l-3.454-.172V13.99c0-1.612.288-2.072.633-2.36.06-.043.123-.085.187-.127.364-.242.769-.511.965-1.197v-.23c-.058-.058-.115-.058-.173.057-.288.403-.518.576-1.094.46-1.727-.402-3.626-.69-3.626 2.534v.345c0 .23-.173.345-.346 0 0-.058-.057-.115-.057-.115-.403-.864-.921-1.554-1.785-2.13a5.84 5.84 0 0 0-3.166-.921c-1.209 0-2.36.345-3.28 1.036-.577.46-.98 1.094-1.21 1.612-.057.115-.172.288-.23.115-.12-.28.065-.726.247-1.165.08-.193.16-.386.214-.562a.636.636 0 0 0 0-.46c-.058-.346-.23-.173-.23-.058-.173.748-1.037.288-1.44.058a4.457 4.457 0 0 0-2.303-.634c-1.611 0-3.05.634-4.144 1.727A5.923 5.923 0 0 0 52.3 16.12c0 1.612.576 3.108 1.612 4.202 1.036 1.036 2.59 1.612 4.202 1.612 1.209 0 3.8-.748 3.511-2.303 0-.067-.02-.174-.036-.263-.011-.062-.021-.116-.021-.14.057-.115.115-.057.172 0 .058.087.116.188.173.288.058.1.115.202.173.288.748 1.151 2.475 2.13 4.317 2.13.979 0 1.958-.23 2.763-.69.979-.519 1.67-1.382 2.13-2.361 0-.029.015-.043.03-.057.014-.015.028-.03.028-.058.115-.288.345-.346.345.058v2.302c0 .69.633.921 1.67.863h4.547c1.151 0 1.67-.402 1.785-1.266.067-.4.056-.743.046-1.05a4.055 4.055 0 0 1 .011-.62c.044-.522.186-.847.253-1 .022-.048.035-.079.035-.093.23-.23.058-.345-.173-.173Zm-20.032.057c-.46.46-1.036.69-1.727.69-.69 0-1.267-.287-1.727-.69-.46-.46-.69-1.036-.69-1.727 0-.69.287-1.267.69-1.727.46-.46 1.036-.69 1.727-.69.69 0 1.266.287 1.727.69.46.46.69 1.036.69 1.727a2.07 2.07 0 0 1-.69 1.727Zm8.347 0c-.46.46-1.036.69-1.727.69-.69 0-1.267-.287-1.727-.69-.46-.46-.69-1.036-.69-1.727 0-.69.287-1.267.69-1.727.46-.46 1.036-.69 1.727-.69.69 0 1.266.287 1.727.69.46.46.69 1.036.69 1.727 0 .69-.23 1.324-.69 1.727Z" clip-rule="evenodd"/>
            <path fill="#fff" d="M86.667 12.206h-2.533l.979-.288a3.962 3.962 0 0 1-.173-.46c-.057-.173-.172-.346-.288-.519-.115-.172-.23-.345-.345-.46l-1.209.288c.07.07.118.16.172.26.034.064.07.132.116.2.08.12.133.24.176.342.02.043.037.084.054.118.029.087.058.159.087.23.028.073.057.145.086.231h-2.188v1.382h5.066v-1.324ZM82.522 19.401l1.21-.288c-.116-1.612-.288-3.223-.576-4.778l-1.152.23c.23 1.612.46 3.224.518 4.836Z"/>
            <path fill="#fff" fill-rule="evenodd" d="M91.906 12.148c.402-.058.575-.23.69-.345.058-.058-.057.172-.172.402-.028.083-.016.18-.002.288.015.12.032.253.002.403-.058.403-.23.576-.691.576h-1.9v1.842h1.497c.518 0 .978.173.978.69v4.894c.058.518-.23.92-1.036.92h-3.799c-.576 0-.921-.172-.921-.748v-5.065c0-.518.345-.633.921-.633h.979V10.42h1.439v1.727h2.014Zm-.922 4.778c0-.173-.115-.173-.172-.173h-2.648c-.115 0-.173.058-.173.173v3.454c0 .115.058.115.115.115h2.763a.124.124 0 0 0 .115-.115v-3.454ZM102.613 13.53h1.208c.403 0 .576-.173.634-.518.039-.199.024-.342.011-.469a1.585 1.585 0 0 1-.011-.165c0-.23.115-.403.115-.403a1.41 1.41 0 0 0-.036.037l-.001.001h-.001v.001c-.106.112-.236.25-.595.25h-1.324V10.42h-1.267v1.842h-.806c.029-.201.072-.403.115-.604a8.04 8.04 0 0 0 .115-.605l-1.208-.23-.087.49c-.028.158-.057.316-.086.489-.058.345-.115.633-.23.92-.058.288-.173.576-.288.864a5.129 5.129 0 0 1-.173.389v-.274c-.057-.46-.23-.575-1.094-.575V12.09h1.267v-1.208h-5.239v1.208h1.152v1.037c-.806 0-1.094.057-1.094.633v7.368c0 .46.173.633 1.036.633h2.993c.576 0 .98-.115.98-.633v-6.77c.232.119.43.256.636.398.074.051.149.103.227.155.115-.173.23-.403.287-.633.097-.193.153-.426.202-.632l.029-.117h1.151v1.497h-2.475v1.267h5.871v-1.267h-2.014V13.53Zm-5.124.805h-.345v2.36h.46V14.45c0-.057 0-.086-.014-.1-.014-.015-.043-.015-.1-.015Zm-.978-2.245h-.691v1.037h.69V12.09Zm-1.727 2.245a.124.124 0 0 0-.115.115v2.764c.115-.173.23-.346.287-.518l.036-.138c.043-.165.08-.302.08-.438v-1.785h-.288Zm.345 3.684-.46-.575h-.058v.92h2.993v-.805h-.403c-.69 0-.863-.173-.863-.864v-2.36h-.403v1.382c0 .23 0 .46-.058.748-.057.634-.345 1.094-.748 1.555Zm-.403 2.418h2.763c.115 0 .173-.057.115-.115v-.92h-2.993v.92c0 .058 0 .115.115.115Z" clip-rule="evenodd"/>
            <path fill="#fff" fill-rule="evenodd" d="M103.591 16.983h-3.281c-.633 0-.978.173-.978.691v3.339c0 .403.057.69 1.036.69h2.993c.691.058 1.036-.114 1.094-.69v-3.281c0-.633-.461-.749-.864-.749Zm-.518 3.512h-2.36c-.058 0-.115 0-.115-.115v-1.957c0-.116 0-.173.115-.173h2.36c.115 0 .173 0 .173.115v2.015c-.058.057-.115.115-.173.115Z" clip-rule="evenodd"/>
            <path fill="#fff" d="M85.83 16.09c-.184 1.176-.366 2.343-.602 3.484l1.036-.346.173 1.382c-.26.086-.533.158-.806.23-.273.072-.547.144-.806.23-.518.173-1.036.346-1.554.461-.325.122-.679.215-1 .3-.135.035-.263.07-.382.103l-.345-1.497.148-.024c.31-.05.657-.107 1.003-.206l1.382-.345c.345-1.842.575-3.8.69-5.7l1.325.289c-.092.547-.177 1.094-.262 1.64Z"/>
        </g>
    </g>
</svg>
